X: 13995
T: Frank Keane's
R: reel
M: 4/4
K: Aminor
|G3 A cAAc|~d3 e f3 z|G3 A cAAc|d2 ed cAAF|
G3 A cAAc|d3 e f2 g2|afge fdec|d2 ed cA A2||
g2 ge d2 d2|efge c2 c2|efge afge|d2 ed cA A2|
efge af g2|afge c3 e|f3 d e3 c|dfef cA A2||

